X: 3028
M: 3/4
L: 1/8
K: C
|:\
c2 G4 | c2 d2 e2 | f2 d2 e2 | A2 d4 |\
c2 c2 G2 | A2 d2 A2 | B2 g2 c2 | d2 d4 |\
c2 e2 f2 | d2 d2 g2 | ^f2 d2 ed | (cB) A3 G |\
c2 e2 f2 | d2 d2 g2 | f2 d2 ed | cB A3 G |\
[M:C|]\
c6 c2 | g2g2 g2fe | f2f2 f2ed |
e2A2 dedc | BcBA G2c2 | g2g2 g2fe | f2f2 f2ed |\
e2A2 dedc | B6 :: "_Bore."G2 | c2c2 c2Bc | A2A2 A2d2 |
y8 y8 y8 y8 y8 y8


